X: 8449
T: Cradle Song
R: reel
M: 4/4
K: Gmajor
V:1
|:GBAG d2 e2|d4 B4|GBAG d2 B2|A6 B2|
V:2
|:G2 FG BGcG|BcBA G2 D2|G2 FG BAGE|FGFE F2 D2|
V:1
GBAG d2 e2|d4 B2G2|EDGA B2 A2|G6 z2:|
V:2
G2 FG BGcG|BcBA G2 B2|GABc dgdc|B2 dc B4:|
V:1
|:ecGc e2 g2|d4 B4|GBAG d2 B2|A6 z2|
V:2
|:cEDE cGec|BcBA G2 D2|G2 FG BAGE|FGFE F2 D2|
V:1
GBAG defg|d4 B2 G2|EDGA B2 A2|G6 z2:|
V:2
BdcB Bcdc|BcBA G2 B2|GABc dgdc|B6 z2:|

